X:7458
T:The Weeding Paddle
T:An Bal Whennie
O:england
M:4/4
K:D
P:ABB
P:A
A>d d>d A<d d>d|e>f g>e f>f f>d|c<e e>c A>c e>f|g>f e>c d2 d>a|
(3fga a>a (3fga a>a|b>a g>f g>e e>d|c<e e>c A>c e>f|g>f e>c d2 d2||
P:B
e>d c>d e2 e2|e>d c>d e2 e>d|c<e e>c A>c e>f|g>f e>c d2 d2:|


